_assets/images/insta.svg

<svg height="504" viewBox="0 0 504 504" width="504" xmlns="http://www.w3.org/2000/svg" xmlns:xlink="http://www.w3.org/1999/xlink"><mask id="a" fill="#fff"><path d="m0 .159h503.841v503.781h-503.841z" fill="#fff" fill-rule="evenodd"/></mask><g fill="#0a0b09" fill-rule="evenodd"><path d="m251.921.159c-68.418 0-76.997.29-103.867 1.516-26.814 1.223-45.127 5.482-61.151 11.71-16.566 6.437-30.615 15.051-44.621 29.056-14.005 14.006-22.619 28.055-29.056 44.621-6.228 16.024-10.487 34.337-11.71 61.151-1.226 26.87-1.516 35.449-1.516 103.867 0 68.417.29 76.996 1.516 103.866 1.223 26.814 5.482 45.127 11.71 61.151 6.437 16.566 15.051 30.615 29.056 44.621 14.006 14.005 28.055 22.619 44.621 29.057 16.024 6.227 34.337 10.486 61.151 11.709 26.87 1.226 35.449 1.516 103.867 1.516 68.417 0 76.996-.29 103.866-1.516 26.814-1.223 45.127-5.482 61.151-11.709 16.566-6.438 30.615-15.052 44.621-29.057 14.005-14.006 22.619-28.055 29.057-44.621 6.227-16.024 10.486-34.337 11.709-61.151 1.226-26.87 1.516-35.449 1.516-103.866 0-68.418-.29-76.997-1.516-103.867-1.223-26.814-5.482-45.127-11.709-61.151-6.438-16.566-15.052-30.615-29.057-44.621-14.006-14.005-28.055-22.619-44.621-29.056-16.024-6.228-34.337-10.487-61.151-11.71-26.87-1.226-35.449-1.516-103.866-1.516zm0 45.391c67.265 0 75.233.257 101.797 1.469 24.562 1.12 37.901 5.224 46.778 8.674 11.759 4.57 20.151 10.029 28.966 18.845 8.816 8.815 14.275 17.207 18.845 28.966 3.45 8.877 7.554 22.216 8.674 46.778 1.212 26.564 1.469 34.532 1.469 101.798 0 67.265-.257 75.233-1.469 101.797-1.12 24.562-5.224 37.901-8.674 46.778-4.57 11.759-10.029 20.151-18.845 28.966-8.815 8.816-17.207 14.275-28.966 18.845-8.877 3.45-22.216 7.554-46.778 8.674-26.56 1.212-34.527 1.469-101.797 1.469-67.271 0-75.237-.257-101.798-1.469-24.562-1.12-37.901-5.224-46.778-8.674-11.759-4.57-20.151-10.029-28.966-18.845-8.815-8.815-14.275-17.207-18.845-28.966-3.45-8.877-7.554-22.216-8.674-46.778-1.212-26.564-1.469-34.532-1.469-101.797 0-67.266.257-75.234 1.469-101.798 1.12-24.562 5.224-37.901 8.674-46.778 4.57-11.759 10.029-20.151 18.845-28.966 8.815-8.816 17.207-14.275 28.966-18.845 8.877-3.45 22.216-7.554 46.778-8.674 26.564-1.212 34.532-1.469 101.798-1.469z" mask="url(#a)"/><path d="m251.921 336.053c-46.378 0-83.974-37.596-83.974-83.973 0-46.378 37.596-83.974 83.974-83.974 46.377 0 83.973 37.596 83.973 83.974 0 46.377-37.596 83.973-83.973 83.973zm0-213.338c-71.447 0-129.365 57.918-129.365 129.365 0 71.446 57.918 129.364 129.365 129.364 71.446 0 129.364-57.918 129.364-129.364 0-71.447-57.918-129.365-129.364-129.365z"/><path d="m416.627 117.604c0 16.696-13.535 30.23-30.231 30.23-16.695 0-30.23-13.534-30.23-30.23s13.535-30.231 30.23-30.231c16.696 0 30.231 13.535 30.231 30.231"/></g></svg>

<?xml version="1.0" encoding="UTF-8"?>
<svg width="504px" height="504px" viewBox="0 0 504 504" version="1.1" xmlns="http://www.w3.org/2000/svg" xmlns:xlink="http://www.w3.org/1999/xlink">
    <!-- Generator: Sketch 57.1 (83088) - https://sketch.com -->
    <title>glyph-logo_May2016</title>
    <desc>Created with Sketch.</desc>
    <defs>
        <polygon id="path-1" points="0 0.159 503.841 0.159 503.841 503.94 0 503.94"></polygon>
    </defs>
    <g id="glyph-logo_May2016" stroke="none" stroke-width="1" fill="none" fill-rule="evenodd">
        <g id="Group-3">
            <mask id="mask-2" fill="white">
                <use xlink:href="#path-1"></use>
            </mask>
            <g id="Clip-2"></g>
            <path d="M251.921,0.159 C183.503,0.159 174.924,0.449 148.054,1.675 C121.24,2.898 102.927,7.157 86.903,13.385 C70.337,19.822 56.288,28.436 42.282,42.441 C28.277,56.447 19.663,70.496 13.226,87.062 C6.998,103.086 2.739,121.399 1.516,148.213 C0.29,175.083 0,183.662 0,252.08 C0,320.497 0.29,329.076 1.516,355.946 C2.739,382.76 6.998,401.073 13.226,417.097 C19.663,433.663 28.277,447.712 42.282,461.718 C56.288,475.723 70.337,484.337 86.903,490.775 C102.927,497.002 121.24,501.261 148.054,502.484 C174.924,503.71 183.503,504 251.921,504 C320.338,504 328.917,503.71 355.787,502.484 C382.601,501.261 400.914,497.002 416.938,490.775 C433.504,484.337 447.553,475.723 461.559,461.718 C475.564,447.712 484.178,433.663 490.616,417.097 C496.843,401.073 501.102,382.76 502.325,355.946 C503.551,329.076 503.841,320.497 503.841,252.08 C503.841,183.662 503.551,175.083 502.325,148.213 C501.102,121.399 496.843,103.086 490.616,87.062 C484.178,70.496 475.564,56.447 461.559,42.441 C447.553,28.436 433.504,19.822 416.938,13.385 C400.914,7.157 382.601,2.898 355.787,1.675 C328.917,0.449 320.338,0.159 251.921,0.159 Z M251.921,45.55 C319.186,45.55 327.154,45.807 353.718,47.019 C378.28,48.139 391.619,52.243 400.496,55.693 C412.255,60.263 420.647,65.722 429.462,74.538 C438.278,83.353 443.737,91.745 448.307,103.504 C451.757,112.381 455.861,125.72 456.981,150.282 C458.193,176.846 458.45,184.814 458.45,252.08 C458.45,319.345 458.193,327.313 456.981,353.877 C455.861,378.439 451.757,391.778 448.307,400.655 C443.737,412.414 438.278,420.806 429.462,429.621 C420.647,438.437 412.255,443.896 400.496,448.466 C391.619,451.916 378.28,456.02 353.718,457.14 C327.158,458.352 319.191,458.609 251.921,458.609 C184.65,458.609 176.684,458.352 150.123,457.14 C125.561,456.02 112.222,451.916 103.345,448.466 C91.586,443.896 83.194,438.437 74.379,429.621 C65.564,420.806 60.104,412.414 55.534,400.655 C52.084,391.778 47.98,378.439 46.86,353.877 C45.648,327.313 45.391,319.345 45.391,252.08 C45.391,184.814 45.648,176.846 46.86,150.282 C47.98,125.72 52.084,112.381 55.534,103.504 C60.104,91.745 65.563,83.353 74.379,74.538 C83.194,65.722 91.586,60.263 103.345,55.693 C112.222,52.243 125.561,48.139 150.123,47.019 C176.687,45.807 184.655,45.55 251.921,45.55 L251.921,45.55 Z" id="Fill-1" fill="#0A0B09" mask="url(#mask-2)"></path>
        </g>
        <path d="M251.921,336.053 C205.543,336.053 167.947,298.457 167.947,252.08 C167.947,205.702 205.543,168.106 251.921,168.106 C298.298,168.106 335.894,205.702 335.894,252.08 C335.894,298.457 298.298,336.053 251.921,336.053 Z M251.921,122.715 C180.474,122.715 122.556,180.633 122.556,252.08 C122.556,323.526 180.474,381.444 251.921,381.444 C323.367,381.444 381.285,323.526 381.285,252.08 C381.285,180.633 323.367,122.715 251.921,122.715 L251.921,122.715 Z" id="Fill-4" fill="#0A0B09"></path>
        <path d="M416.627,117.604 C416.627,134.3 403.092,147.834 386.396,147.834 C369.701,147.834 356.166,134.3 356.166,117.604 C356.166,100.908 369.701,87.373 386.396,87.373 C403.092,87.373 416.627,100.908 416.627,117.604" id="Fill-5" fill="#0A0B09"></path>
    </g>
</svg>
